assets/advantage3.svg

<svg fill="none" xmlns="http://www.w3.org/2000/svg" viewBox="0 0 68 63">
  <path d="M60.9244 44.7133h-.598v-2.6576h.1329c2.724-.9965 4.7172-3.9863 4.7172-7.1089 0-2.7904-1.5281-5.1822-3.9864-6.3781l-.6644-.3322-.0664-.7308c-.6644-6.6439-6.1788-11.6268-12.8891-11.6268h-1.1959l-.3322-.9302C43.7167 7.57402 36.8735 2.65755 29.1002 2.65755c-8.8364 0-16.4768 6.64388-17.7392 15.41385l-.1328.7972-.7309.2658c-4.71713 1.6609-7.83975 6.1788-7.83975 11.0952 0 6.511 5.3151 11.8261 11.82615 11.8261v2.6576C6.511 44.7133 0 38.2023 0 30.2296c0-5.8466 3.52126-11.0952 8.83636-13.3541C10.6302 7.24183 19.2008 0 29.1002 0c8.5706 0 16.1446 5.24866 19.2008 13.2213 7.5076.3322 13.62 5.9131 14.683 13.2878 2.9897 1.7274 4.85 4.9164 4.85 8.4377 0 4.385-2.8569 8.4377-6.7768 9.7001l-.1328.0664Z" fill="#fff"/>
  <path d="M15.0152 19.9981v-.1329c0-7.4411 6.0459-13.42064 13.487-13.42064v2.65756c-5.9794 0-10.8295 4.84998-10.8295 10.76308v.0664l-2.6575.0665ZM9.10212 29.5653H6.44456c0-3.7206 2.79043-6.8432 6.51104-7.2419l.3322 2.6576c-2.3918.2657-4.18568 2.2589-4.18568 4.5843Z" fill="#fff"/>
  <path d="M41.1921 62.1867h-7.8398l-.4651-5.2487c-1.1959-.3986-2.3918-.8637-3.4548-1.528l-3.8535 3.2555-5.5808-5.5145 3.3884-4.0527c-.598-1.1295-1.0631-2.3254-1.3953-3.5213l-5.0493-.3986v-7.8398l5.2487-.4651c.3986-1.1959.8637-2.3918 1.5281-3.4548l-3.2556-3.8534 5.5809-5.5809 4.0528 3.3884c1.1294-.598 2.3253-1.063 3.5212-1.3952l.3987-5.0494h7.8397l.4651 5.2487c1.1959.3986 2.3918.8637 3.4548 1.5281l3.8535-3.2555 5.5808 5.5808-3.3883 3.9864c.5979 1.1294 1.063 2.3253 1.3952 3.5212l5.0493.3987v7.8397l-5.2486.4651c-.3987 1.1959-.8638 2.3918-1.5281 3.4548l3.2555 3.8535-5.5809 5.6473-3.9863-3.3884c-1.1295.5979-2.3254 1.063-3.5213 1.3952l-.465 4.9829Zm-5.3816-2.6575h2.9898l.3986-4.5843.9966-.1993c1.5945-.3322 3.1226-.8637 4.4514-1.7274l.7972-.5316 3.5877 3.0562 2.1261-2.126-2.9898-3.5213.598-.8637c.9301-1.3287 1.5945-2.7904 1.9267-4.3849l.1993-.9302 4.7172-.3986v-2.9898l-4.5843-.3986-.1993-.9966c-.3322-1.5945-.8637-3.1226-1.7274-4.4514l-.5315-.7972 3.0561-3.5877-2.126-2.1261-3.5213 2.9898-.7972-.5315c-1.3288-.9302-2.7905-1.5946-4.385-1.9268l-.9301-.1993-.3987-4.7171h-2.9897l-.3986 4.5843-.9966.1993c-1.5945.3322-3.1226.8637-4.4514 1.7274l-.8637.465-3.5877-3.0561-2.1261 2.126 2.9898 3.5213-.598.8637c-.9301 1.3287-1.5945 2.7904-1.9267 4.3849l-.1993.9302-4.7172.3986v2.9897l4.5843.3987.1993.9966c.3322 1.5945.8637 3.1226 1.7274 4.4514l.5316.7972-3.0562 3.5877 2.126 2.1261 3.5213-2.9898.8637.598c1.3287.9301 2.7904 1.5945 4.3849 1.9267l.9302.1993.3986 4.7172Z" fill="#F86A2E"/>
  <path d="M37.6044 50.3606c-4.8501 0-8.77-3.9199-8.77-8.7699 0-4.8501 3.9199-8.7699 8.77-8.7699 4.85 0 8.7699 3.9198 8.7699 8.7699 0 4.85-3.9199 8.7699-8.7699 8.7699Zm0-14.9487c-3.3884 0-6.1124 2.724-6.1124 6.1123 0 3.3884 2.724 6.1124 6.1124 6.1124 3.3883 0 6.1123-2.724 6.1123-6.1124 0-3.3883-2.724-6.1123-6.1123-6.1123Z" fill="#F86A2E"/>
</svg>

<svg width="68" height="63" viewBox="0 0 68 63" fill="none" xmlns="http://www.w3.org/2000/svg">
<path d="M60.9244 44.7133H60.3264V42.1222V42.0557H60.4593C63.1833 41.0592 65.1765 38.0694 65.1765 34.9468C65.1765 32.1564 63.6484 29.7646 61.1901 28.5687L60.5257 28.2365L60.4593 27.5057C59.7949 20.8618 54.2805 15.8789 47.5702 15.8789H46.3743L46.0421 14.9487C43.7167 7.57402 36.8735 2.65755 29.1002 2.65755C20.2638 2.65755 12.6234 9.30143 11.361 18.0714L11.2282 18.8686L10.4973 19.1344C5.78017 20.7953 2.65755 25.3132 2.65755 30.2296C2.65755 36.7406 7.97265 42.0557 14.4837 42.0557V44.7133C6.511 44.7133 0 38.2023 0 30.2296C0 24.383 3.52126 19.1344 8.83636 16.8755C10.6302 7.24183 19.2008 0 29.1002 0C37.6708 0 45.2448 5.24866 48.301 13.2213C55.8086 13.5535 61.921 19.1344 62.984 26.5091C65.9737 28.2365 67.834 31.4255 67.834 34.9468C67.834 39.3318 64.9771 43.3845 61.0572 44.6469L60.9244 44.7133Z" fill="white"/>
<path d="M15.0152 19.9981V19.8652C15.0152 12.4241 21.0611 6.44456 28.5022 6.44456V9.10212C22.5228 9.10212 17.6727 13.9521 17.6727 19.8652V19.9316L15.0152 19.9981Z" fill="white"/>
<path d="M9.10212 29.5653H6.44456C6.44456 25.8447 9.23499 22.7221 12.9556 22.3234L13.2878 24.981C10.896 25.2467 9.10212 27.2399 9.10212 29.5653Z" fill="white"/>
<path d="M41.1921 62.1867H33.3523L32.8872 56.938C31.6913 56.5394 30.4954 56.0743 29.4324 55.41L25.5789 58.6655L19.9981 53.151L23.3865 49.0983C22.7885 47.9688 22.3234 46.7729 21.9912 45.577L16.9419 45.1784V37.3386L22.1906 36.8735C22.5892 35.6776 23.0543 34.4817 23.7187 33.4187L20.4631 29.5653L26.044 23.9844L30.0968 27.3728C31.2262 26.7748 32.4221 26.3098 33.618 25.9776L34.0167 20.9282H41.8564L42.3215 26.1769C43.5174 26.5755 44.7133 27.0406 45.7763 27.705L49.6298 24.4495L55.2106 30.0303L51.8223 34.0167C52.4202 35.1461 52.8853 36.342 53.2175 37.5379L58.2668 37.9366V45.7763L53.0182 46.2414C52.6195 47.4373 52.1544 48.6332 51.4901 49.6962L54.7456 53.5497L49.1647 59.197L45.1784 55.8086C44.0489 56.4065 42.853 56.8716 41.6571 57.2038L41.1921 62.1867ZM35.8105 59.5292H38.8003L39.1989 54.9449L40.1955 54.7456C41.79 54.4134 43.3181 53.8819 44.6469 53.0182L45.4441 52.4866L49.0318 55.5428L51.1579 53.4168L48.1681 49.8955L48.7661 49.0318C49.6962 47.7031 50.3606 46.2414 50.6928 44.6469L50.8921 43.7167L55.6093 43.3181V40.3283L51.025 39.9297L50.8257 38.9331C50.4935 37.3386 49.962 35.8105 49.0983 34.4817L48.5668 33.6845L51.6229 30.0968L49.4969 27.9707L45.9756 30.9605L45.1784 30.429C43.8496 29.4988 42.3879 28.8344 40.7934 28.5022L39.8633 28.3029L39.4646 23.5858H36.4749L36.0763 28.1701L35.0797 28.3694C33.4852 28.7016 31.9571 29.2331 30.6283 30.0968L29.7646 30.5618L26.1769 27.5057L24.0508 29.6317L27.0406 33.153L26.4426 34.0167C25.5125 35.3454 24.8481 36.8071 24.5159 38.4016L24.3166 39.3318L19.5994 39.7304V42.7201L24.1837 43.1188L24.383 44.1154C24.7152 45.7099 25.2467 47.238 26.1104 48.5668L26.642 49.364L23.5858 52.9517L25.7118 55.0778L29.2331 52.088L30.0968 52.686C31.4255 53.6161 32.8872 54.2805 34.4817 54.6127L35.4119 54.812L35.8105 59.5292Z" fill="#F86A2E"/>
<path d="M37.6044 50.3606C32.7543 50.3606 28.8344 46.4407 28.8344 41.5907C28.8344 36.7406 32.7543 32.8208 37.6044 32.8208C42.4544 32.8208 46.3743 36.7406 46.3743 41.5907C46.3743 46.4407 42.4544 50.3606 37.6044 50.3606ZM37.6044 35.4119C34.216 35.4119 31.492 38.1359 31.492 41.5242C31.492 44.9126 34.216 47.6366 37.6044 47.6366C40.9927 47.6366 43.7167 44.9126 43.7167 41.5242C43.7167 38.1359 40.9927 35.4119 37.6044 35.4119Z" fill="#F86A2E"/>
</svg>
